X:1
T:Der evangelische Kirchenchor
T:Nun bricht die finstre Nacht herein
T:Max Reger
T:Text: 1-4. Kaspar Neumann a)    Adam Krieger b-c) Johann Friedrich Herzog
T:Nun bricht die finstre Nacht herein
T:Nr. 40 aus Der evangelische Kirchenchor, WoO VI/17 
T:CPDL - Creative Commons Attribution Non Commercial 3.0
C:Max Reger
Z:Kaspar Neumann
Z:CPDL - Creative Commons Attribution Non Commercial 3.0
%%score [ ( 1 2 ) ( 3 4 ) ]
L:1/8
Q:1/4=88
M:4/4
K:Bb
V:1 treble nm="Sopran\nAlt"
V:2 treble 
V:3 bass nm="Tenor\nBass"
V:4 bass 
V:1
!p!"^Langsam"!<(! d2 | G2!<)! A2 B2 B2 |!>(! c2 c2!>)! d4 | z2!mf!!<(! d2!<)! c2 c2 | %4
w: 1.~Nun|bricht die fins- tre|Nacht her- ein,|des Ta- ges|
w: 2.~O|Gott, du gro- ßer|Herr der Welt,|den nie- mand|
w: 3.~Der|Tag, den ich nun-|mehr voll- bracht,|der war be-|
w: 4.~Nun|such ich dei- nen|Gna- den- thron.|Sieh mei- ne|
 d!>(!c B2!>)!!p! =A4 | z2!mf!!<(! d2 B2!<)! A2 | B2 G2!>(! ^F2 G2 | %7
w: Glanz * ist tot;|je- doch, mein|Herz, schlaf noch nicht|
w: se- * hen kann,|du siehst ja|mich in dei- nem|
w: son- * ders dein;|drum hätt er|auch bis in die|
w: Schuld * nicht an|und den- ke,|dass dein lie- ber|
 A6!>)!!pp![Q:1/4=80]"^poco a poco rit." d2 |!>(! c2 B2 =A2 A2 | !fermata!G6!>)! z2 |] %10
w: ein, geh,|red' zu- vor mit|Gott.|
w: Zelt, hör|auch mein Seuf- zen|an.|
w: Nacht dir|sol- len hei- lig|sein.|
w: Sohn für|mich ge- nug ge-|tan.|
V:2
 F2 | E2 E2 D2 E2 | E2 FE D4 | x2 GF EF G2 | _A2 G2 ^F4 | x2 =F2 E2 E2 | D2 E2 E2 D2 | ^C6 G2 | %8
 E2 D2 E2 DC | =B,6 x2 |] %10
V:3
 B,2 | B,2 C2 B,2 G,2 | _A,2 A,2 =A,4 | z2 B,2 C2 C2 | FE D2 D4 | z2 B,2 G,2 C2 | B,2 B,2 A,2 B,2 | %7
 =E,6 B,2 | _A,2 F,2 C2 ^F,2 | G,6 z2 |] %10
V:4
 B,,2 | E,2 C,2 G,,2 E,2 | _A,,2 F,2 ^F,4 | x2 G,2 _A,2 E,2 | F,2 G,2 D,4 | x2 B,,2 E,2 C,2 | %6
w: a)~Nun|sich der Tag ge-|en- det hat,|und kei- ne|Sonn' mehr scheint,|schläft al- les,|
w: b)~Nur|du, mein Gott, hast|kei- ne Rast,|du schläfst noch|schlum- merst nicht;|die Fins- ter-|
w: c)~Ge-|den- ke, Herr, doch|auch an mich|in die- ser|fins- tern Nacht|und schen- ke|
 G,,2 E,2 C,2 B,,2 | A,,6 G,,2 | _A,,2 B,,2 C,2 D,2 | !fermata![G,,D,]6 x2 |] %10
w: was sich ab- ge-|matt' und|was zu- vor ge-|weint.|
w: nis ist dir ver-|haßt, weil|du bist selbst das|Licht.|
w: mir ge- nä- dig-|lich den|Schirm von dei- ner|Wacht!|

